X: 3
T: Missa Da pacem / Credo
N: Derived from Mou1020c-Missa_Da_pacem-Credo.krn
%%abc-version 2.0
%%abcx-abcm2ps-target-version 5.9.1 (29 Sep 2008)
%%abc-creator hum2abc beta
%%abcx-conversion-date 2019/02/17 07:22:03
%%abc-edited-by Jesse Rodin
%%abc-edited-by Victoria Chang 2011/04/18
%%abcx-initial-encoding-date 2011/01/01/
%%humdrum-veritas 2628876283
%%humdrum-veritas-data 3665154034
%%linebreak <none>
%%barnumbers 0
L: 1/4
M: 3/1
Q: 1/2=120
%%staves [1 2 3 4]
V: 1 clef=treble
V: 2 clef=treble-8
V: 3 clef=treble-8
V: 4 clef=bass
K: F
[V:1] z12 | 
[V:2] G8F4 | 
[V:3] z12 | 
[V:4] z12 | 
[V:1] G8F4 | 
[V:2] G3AB2G2A4 | 
[V:3] z12 | 
[V:4] z12 | 
[V:1] G3AB3GA4 | 
[V:2] GABcd2e2f2d2- | 
[V:3] z12 | 
[V:4] G,8F,4 | 
[V:1] G4z4z2c2 | 
[V:2] d2e2d2g4^f2 | 
[V:3] z12 | 
[V:4] G,3A,B,2G,2A,4 | 
[V:1] B2G2B2B2A2A2 | 
[V:2] g2g2d2d2f2f2 | 
[V:3] z12 | 
[V:4] G,8z4 | 
[V:1] G4z2A2A2A2 | 
[V:2] e2e2d2d2c2A2 | 
[V:3] z12 | 
[V:4] z2G,2F,2D,2F,2F,2 | 
[V:1] G2_E2F2G4^F2 | 
[V:2] c2c2B2B2A2A2 | 
[V:3] z12 | 
[V:4] _E,2E,2D,2B,,2C,2D,2 | 
[V:1] G4G2G2G2GA | 
[V:2] GABcd2e4e2 | 
[V:3] G12- | 
[V:4] G,,4z2C,2C,2C,2 | 
[V:1] Bcd3cc4=B2 | 
[V:2] d2g2fedcd4 | 
[V:3] G12- | 
[V:4] B,,2B,,2C,2C,2G,,4 | 
[V:1] c4z2c2B2G2 | 
[V:2] c3defg4c2 | 
[V:3] G12 | 
[V:4] C,4C,2C,2_E,2E,2 | 
[V:1] A2d3cB4A2 | 
[V:2] f6d2c4 | 
[V:3] F12- | 
[V:4] D,2B,,3C,D,E,F,4 | 
[V:1] B4z2B4A2 | 
[V:2] B8z4 | 
[V:3] F12- | 
[V:4] B,,4B,,2B,,2D,2C,B,, | 
[V:1] B3A/G/F4B2B2 | 
[V:2] B4B2B2d3c/B/ | 
[V:3] F12 | 
[V:4] B,,4B,,4B,,2B,,2 | 
[V:1] B4G4c4 | 
[V:2] B2B2_e2_e2_e2dc | 
[V:3] G12- | 
[V:4] _E,4E,2E,2C,4 | 
[V:1] B2c4G3FGA | 
[V:2] d2c2d4c4 | 
[V:3] G12- | 
[V:4] z2C,4B,,2C,2C,2 | 
[V:1] B2G3F_EDE2E2 | 
[V:2] B2c2c2G4FE | 
[V:3] G12 | 
[V:4] G,,2C,4B,,2C,2C,2 | 
[V:1] D4z4z4 | 
[V:2] F2G4F2G2F2- | 
[V:3] B12- | 
[V:4] B,,4_E,2D,2E,2D,2 | 
[V:1] z4z4D4 | 
[V:2] F2G4FEF4 | 
[V:3] B12 | 
[V:4] B,,2_E,4D,C,D,4 | 
[V:1] E2E2CDEFG2A2 | 
[V:2] G4A4G2F2 | 
[V:3] c12- | 
[V:4] C,6D,2E,2F,2 | 
[V:1] G2c3BB4A2 | 
[V:2] G4g4f4 | 
[V:3] c12 | 
[V:4] E,2C,3D,E,2F,4 | 
[V:1] B4z2G2G2G2 | 
[V:2] d2_e3dd4c2 | 
[V:3] B8z4 | 
[V:4] G,8_E,4 | 
[V:1] F2D2F2F2E2CD | 
[V:2] d4A4A2A2 | 
[V:3] z12 | 
[V:4] D,4D,2D,2C,2A,,2 | 
[V:1] EFG3FE3DD2- | 
[V:2] G2E2G2G2F4 | 
[V:3] z12 | 
[V:4] C,2C,2B,,2G,,2A,,4- | 
[V:1] D2C2D4C4 | 
[V:2] E4F2G4^F2 | 
[V:3] A12 | 
[V:4] A,,4D,2C,B,,A,,4 | 
[V:1] z4z2G4G2 | 
[V:2] G8z2g2- | 
[V:3] B12 | 
[V:4] G,,2G,4G,2E,2E,2 | 
[V:1] E2E2CDEFG2A2 | 
[V:2] g2g2e2e2c4 | 
[V:3] c12 | 
[V:4] C,4C,3D,E,2F,2 | 
[V:1] B3AG2FED4 | 
[V:2] d2GABcdef3e/d/ | 
[V:3] B12 | 
[V:4] B,,2_E,4D,C,B,,4 | 
[V:1] E2F4EDC3D | 
[V:2] c2F3GABcdef | 
[V:3] A12 | 
[V:4] C,2D,4C,B,,A,,2C,2- | 
[V:1] EFG3FD3EFG | 
[V:2] g3fd4f3e | 
[V:3] G3ABcd3cA2- | 
[V:4] C,D,E,F,G,3F,D,3E, | 
[V:1] A3GE3FG3A | 
[V:2] c2c3d_e3dBc | 
[V:3] ABc3BG3AB2- | 
[V:4] F,3E,C,3D,_E,3D, | 
[V:1] B2A3GG4^F2 | 
[V:2] d_ed4c2d4 | 
[V:3] BAF2G4A4 | 
[V:4] B,,C,D,2_E,4D,4 | 
[V:1] G12 | 
[V:2] z2d2d2d2c2d2- | 
[V:3] G8z4 | 
[V:4] G,,8z2G,2 | 
[V:1] z12 | 
[V:2] d2cBA2B4AG | 
[V:3] z12 | 
[V:4] G,2G,2F,2G,4F,E, | 
[V:1] z12 | 
[V:2] FGABcBB4A2 | 
[V:3] z12 | 
[V:4] D,2F,2_E,D,C,B,,C,4 | 
[V:1] z2G2G2G2F2G2- | 
[V:2] B4G4z4 | 
[V:3] B8B4 | 
[V:4] B,,4z4z4 | 
[V:1] G2FED2F2G2A2- | 
[V:2] z12 | 
[V:3] B6A2G2F2 | 
[V:4] z12 | 
[V:1] AGG4^FEF4 | 
[V:2] z12 | 
[V:3] G4A8 | 
[V:4] z12 | 
[V:1] G8z4 | 
[V:2] z2_e2_e2_e2d2_e2- | 
[V:3] G8z4 | 
[V:4] z2C,2C,2C,2B,,2C,2- | 
[V:1] z12 | 
[V:2] e2dcB3cd_ed2- | 
[V:3] z12 | 
[V:4] C,2B,,A,,G,,2G,4F,E, | 
[V:1] z12 | 
[V:2] dcc4=B2c4 | 
[V:3] z12 | 
[V:4] F,E,D,C,D,4C,4 | 
[V:1] D4D2E2F3E | 
[V:2] F4z4z4 | 
[V:3] B4B2c2d3c | 
[V:4] B,,4z4z4 | 
[V:1] F2G3FEDE4 | 
[V:2] z12 | 
[V:3] d2e3dd4^c2 | 
[V:4] z12 | 
[V:1] D4z4z4 | 
[V:2] F4F2E2F2A2 | 
[V:3] d4z4z4 | 
[V:4] B,,4B,,2C,2D,4 | 
[V:1] z12 | 
[V:2] B2c3BB4A2 | 
[V:3] z12 | 
[V:4] D,2_E,3D,C,B,,C,4 | 
[V:1] z2F4G2A2A2 | 
[V:2] B4f4f2d2 | 
[V:3] d4d2d2c2A2 | 
[V:4] B,,4B,,4F,2F,2 | 
[V:1] G2c3BB4A2 | 
[V:2] e2f2f2e2f3e | 
[V:3] B2c2d2B2c4 | 
[V:4] G,2F,2D,2G,2F,4 | 
[V:1] B4z2G2F2D2 | 
[V:2] d2G3ABcdef2- | 
[V:3] B4z2B6 | 
[V:4] z2_E,4E,2D,2B,,2 | 
[V:1] E2A3GG4F2 | 
[V:2] fed4c2d4 | 
[V:3] A2F2G4A4 | 
[V:4] C,2D,2_E,4D,4 | 
[V:1] E2D2G3FDEF2 | 
[V:2] B4G4d4 | 
[V:3] G2d4c2B2A2 | 
[V:4] G,,4z2G,4F,2 | 
[V:1] G2A3GG4F2 | 
[V:2] e2f2e2d3cA2 | 
[V:3] G2F2G4A4 | 
[V:4] E,2D,2C,2B,,2C,2D,2 | 
[V:1] E2D2G3FDEF2 | 
[V:2] B4G4z2d2 | 
[V:3] z2d4c2B2A2 | 
[V:4] G,,4z2G,4F,2 | 
[V:1] G2A3GG4^F2 | 
[V:2] e2f2e2d4A2 | 
[V:3] G2F2G4A4 | 
[V:4] E,2D,2C,2B,,2C,2D,2 | 
[V:1] G12 ||  
[V:2] B12 ||  
[V:3] G12 ||  
[V:4] G,,12 ||  
[V:1] [M:2/1]G8 | 
[V:2] [M:2/1]d8 | 
[V:3] [M:2/1]G8 | 
[V:4] [M:2/1]G,,8 | 
[V:1] D4E4 | 
[V:2] d4c4 | 
[V:3] G4G4 | 
[V:4] B,,4C,4 | 
[V:1] F4F4 | 
[V:2] A4B4 | 
[V:3] F4F4 | 
[V:4] D,4D,4 | 
[V:1] E8 | 
[V:2] c8 | 
[V:3] G8 | 
[V:4] C,8 | 
[V:1] z4D4- | 
[V:2] z4F4 | 
[V:3] z4B4- | 
[V:4] z4B,,4- | 
[V:1] D4G4 | 
[V:2] B6A2 | 
[V:3] B4B4 | 
[V:4] B,,4_E,4 | 
[V:1] G4F4 | 
[V:2] G2_E2F4 | 
[V:3] B4B4 | 
[V:4] _E,4D,4 | 
[V:1] _E8 | 
[V:2] G8- | 
[V:3] c8 | 
[V:4] C,8 | 
[V:1] D8 | 
[V:2] G8 | 
[V:3] B8 | 
[V:4] G,,8 | 
[V:1] z4F4- | 
[V:2] z4F4- | 
[V:3] z4A4- | 
[V:4] z4D,4- | 
[V:1] F4G4 | 
[V:2] F4D2G2- | 
[V:3] A4B4 | 
[V:4] D,4B,,4 | 
[V:1] A8 | 
[V:2] G2^FE^F4 | 
[V:3] c8 | 
[V:4] A,,8 | 
[V:1] D8 | 
[V:2] G8 | 
[V:3] B8 | 
[V:4] G,,8 | 
[V:1] D6E2 | 
[V:2] F2f4e2- | 
[V:3] B8 | 
[V:4] B,,6C,2 | 
[V:1] F4G4- | 
[V:2] edd4c2 | 
[V:3] A4G4 | 
[V:4] D,4_E,4 | 
[V:1] G2^FEF4 | 
[V:2] d8 | 
[V:3] A8 | 
[V:4] D,8 | 
[V:1] G6F_E | 
[V:2] B8 | 
[V:3] !fermata!G8- | 
[V:4] _E,8 | 
[V:1] !fermata!_E8 | 
[V:2] !fermata!c8 | 
[V:3] G8 | 
[V:4] !fermata!C,8 | 
[V:1] F8 | 
[V:2] d8 | 
[V:3] B8 | 
[V:4] B,,8 | 
[V:1] F4G4 | 
[V:2] d4d4 | 
[V:3] B4B4 | 
[V:4] B,,4B,,4 | 
[V:1] A6B2 | 
[V:2] e4f4 | 
[V:3] A4F4 | 
[V:4] C,4D,4 | 
[V:1] c4cBAG | 
[V:2] e4c4 | 
[V:3] G8 | 
[V:4] C,4_E,4 | 
[V:1] F2G4^F2 | 
[V:2] d8 | 
[V:3] A8 | 
[V:4] D,8 | 
[V:1] G8 ||  
[V:2] d8 ||  
[V:3] G8 ||  
[V:4] G,,8 ||  
[V:1] [M:2/1]z8 | 
[V:2] [M:2/1]z8 | 
[V:3] [M:2/1]z8 | 
[V:4] [M:2/1]B,,4B,,2A,,2 | 
[V:1] z8 | 
[V:2] B4B2A2 | 
[V:3] z8 | 
[V:4] B,,2C,2D,3C, | 
[V:1] z8 | 
[V:2] B2c2d3c | 
[V:3] z8 | 
[V:4] D,2E,2F,2G,2- | 
[V:1] z8 | 
[V:2] d2_e3dd2- | 
[V:3] z8 | 
[V:4] G,F,_E,D,C,2D,2 | 
[V:1] z8 | 
[V:2] d2c2d4 | 
[V:3] z8 | 
[V:4] _E,4z2D,2 | 
[V:1] z8 | 
[V:2] z2A2c2c2 | 
[V:3] z8 | 
[V:4] F,2F,2F,2E,D, | 
[V:1] z8 | 
[V:2] c2BAG3A | 
[V:3] z8 | 
[V:4] C,3D,E,F,G,2- | 
[V:1] z8 | 
[V:2] Bcd4cB | 
[V:3] z8 | 
[V:4] G,2F,E,D,4 | 
[V:1] z8 | 
[V:2] A4z2A2- | 
[V:3] z8 | 
[V:4] z2D,3C,D,E, | 
[V:1] z8 | 
[V:2] AGABc4- | 
[V:3] z8 | 
[V:4] F,6E,D, | 
[V:1] z8 | 
[V:2] c2BAG3A | 
[V:3] z8 | 
[V:4] C,3D,E,F,G,2- | 
[V:1] z8 | 
[V:2] Bcd4cB | 
[V:3] z8 | 
[V:4] G,2F,E,F,2_E,D, | 
[V:1] z8 | 
[V:2] cBB4A2 | 
[V:3] z8 | 
[V:4] _E,D,C,B,,C,4 | 
[V:1] z8 | 
[V:2] B8 | 
[V:3] z8 | 
[V:4] B,,4z2B,,2 | 
[V:1] z8 | 
[V:2] z2F2G3A | 
[V:3] z8 | 
[V:4] C,2D,2_E,4 | 
[V:1] z8 | 
[V:2] B2B2A2F2 | 
[V:3] z8 | 
[V:4] D,2B,,2C,2D,2 | 
[V:1] z8 | 
[V:2] G2A2B2c2- | 
[V:3] z8 | 
[V:4] _E,2F,2G,F,E,D, | 
[V:1] z8 | 
[V:2] cBAGB2A2- | 
[V:3] z8 | 
[V:4] C,2D,3B,,C,2- | 
[V:1] z8 | 
[V:2] AGG4^F2 | 
[V:3] z8 | 
[V:4] C,B,,A,,G,,A,,4 | 
[V:1] z8 ||  
[V:2] G8 ||  
[V:3] z8 ||  
[V:4] G,,8 ||  
[V:1] [M:2/1]z4G4- | 
[V:2] [M:2/1]z8 | 
[V:3] [M:2/1]c4c2c2 | 
[V:4] [M:2/1]z8 | 
[V:1] G2G2F4 | 
[V:2] z8 | 
[V:3] B4A4 | 
[V:4] z8 | 
[V:1] E4z2E2 | 
[V:2] z8 | 
[V:3] z2A2c2c2 | 
[V:4] z8 | 
[V:1] G2G2F2D2 | 
[V:2] z8 | 
[V:3] B2G2A3B | 
[V:4] z8 | 
[V:1] E3FG4 | 
[V:2] z8 | 
[V:3] c6BA | 
[V:4] z8 | 
[V:1] z2G2G2B2- | 
[V:2] z8 | 
[V:3] G4z2G2 | 
[V:4] z8 | 
[V:1] BAGFGFED | 
[V:2] z8 | 
[V:3] G2B2BAGF | 
[V:4] z8 | 
[V:1] EDD4^C2 | 
[V:2] z8 | 
[V:3] GFEDE4 | 
[V:4] z8 | 
[V:1] D4z2F2 | 
[V:2] z8 | 
[V:3] D8 | 
[V:4] z8 | 
[V:1] G2A2B2c2 | 
[V:2] z8 | 
[V:3] z2F2G2A2 | 
[V:4] z8 | 
[V:1] G2A2B2c2- | 
[V:2] z8 | 
[V:3] B2c2d2_e2- | 
[V:4] z8 | 
[V:1] cBB4A2 | 
[V:2] z8 | 
[V:3] edcBc4 | 
[V:4] z8 | 
[V:1] B8 | 
[V:2] z8 | 
[V:3] B4z2_e2 | 
[V:4] z8 | 
[V:1] z2B2A2F2 | 
[V:2] z8 | 
[V:3] d2B2c2d2 | 
[V:4] z8 | 
[V:1] G2A2D2G2 | 
[V:2] z8 | 
[V:3] G2c2B2G2 | 
[V:4] z8 | 
[V:1] F2D2E2F2 | 
[V:2] z8 | 
[V:3] A2B2c2A2 | 
[V:4] z8 | 
[V:1] GFGAB2G2 | 
[V:2] z8 | 
[V:3] BABcd2B2 | 
[V:4] z8 | 
[V:1] A2B2c3B | 
[V:2] z8 | 
[V:3] c2G2A2B2 | 
[V:4] z8 | 
[V:1] AGG4^F2 | 
[V:2] z8 | 
[V:3] cBAGA4 | 
[V:4] z8 | 
[V:1] G8 ||  
[V:2] z8 ||  
[V:3] G8 ||  
[V:4] z8 ||  
[V:1] [M:2/1]D4D2D2 | 
[V:2] [M:2/1]z8 | 
[V:3] [M:2/1]G8- | 
[V:4] [M:2/1]z4G,,4 | 
[V:1] G8 | 
[V:2] z4c4 | 
[V:3] G8 | 
[V:4] G,,2G,,2C,4 | 
[V:1] z2A2A2A2 | 
[V:2] c2c2f4 | 
[V:3] F8- | 
[V:4] z4z2D,2 | 
[V:1] F4z2F2 | 
[V:2] z2d2d2d2 | 
[V:3] F8 | 
[V:4] D,2D,2B,,4 | 
[V:1] B2B2G2G2 | 
[V:2] B4B2_e2 | 
[V:3] G8- | 
[V:4] z2B,,2_E,2E,2 | 
[V:1] c2c2G2B2 | 
[V:2] _e2c2c2B2 | 
[V:3] G8 | 
[V:4] C,2C,2_E,2E,2 | 
[V:1] BAGFG2GF | 
[V:2] B4G4 | 
[V:3] B8 | 
[V:4] B,,2_E,4D,2 | 
[V:1] EDFGA2A2 | 
[V:2] z2G4^F2 | 
[V:3] c8 | 
[V:4] C,2B,,2A,,4 | 
[V:1] D4z4 | 
[V:2] G3ABcd2 | 
[V:3] B4z4 | 
[V:4] G,,2G,4F,2 | 
[V:1] z8 | 
[V:2] c2B4A2 | 
[V:3] z8 | 
[V:4] _E,2D,2C,4 | 
[V:1] z2F2F2F2 | 
[V:2] B4z2f2 | 
[V:3] z8 | 
[V:4] B,,8 | 
[V:1] D3EFGA2 | 
[V:2] f2f2d3c | 
[V:3] z8 | 
[V:4] z8 | 
[V:1] F2G4F2- | 
[V:2] d2_e4d2- | 
[V:3] z8 | 
[V:4] z8 | 
[V:1] F2EDE4 | 
[V:2] d2cBc4 | 
[V:3] A8 | 
[V:4] z8 | 
[V:1] D4F3F | 
[V:2] d8 | 
[V:3] B8 | 
[V:4] B,,3B,,D,2D,2 | 
[V:1] A2A2E4 | 
[V:2] z4A4 | 
[V:3] c8 | 
[V:4] A,,4C,2C,2 | 
[V:1] G2G2B2B2 | 
[V:2] G2B2B2F2- | 
[V:3] B8 | 
[V:4] _E,2E,2B,,4 | 
[V:1] F4A4 | 
[V:2] F2A4E2 | 
[V:3] A8 | 
[V:4] D,4A,,2A,,2 | 
[V:1] E2E2G2G2 | 
[V:2] E2G2G2D2- | 
[V:3] G3AB2G2 | 
[V:4] C,2C,2G,,4 | 
[V:1] D4G3F | 
[V:2] DEF2G2g2- | 
[V:3] A2B4G2 | 
[V:4] D,4_E,4 | 
[V:1] E2D2G2A2- | 
[V:2] g2f2e2c2- | 
[V:3] A2B2c3B | 
[V:4] C,2D,2E,2F,2- | 
[V:1] A2G4^F2 | 
[V:2] c2d2_e2d2 | 
[V:3] AGB2A4 | 
[V:4] F,2B,,2C,2D,2 | 
[V:1] G8 | 
[V:2] B4z2B2- | 
[V:3] G8 | 
[V:4] G,,4z2G,,2 | 
[V:1] z8 | 
[V:2] B2B2B2B2 | 
[V:3] z8 | 
[V:4] G,,A,,B,,C,D,2D,2 | 
[V:1] z8 | 
[V:2] B2A2G2F2 | 
[V:3] z8 | 
[V:4] _E,2F,2G,2A,2- | 
[V:1] z8 | 
[V:2] G4A4 | 
[V:3] z8 | 
[V:4] A,G,G,4^F,2 | 
[V:1] z2B2B3A | 
[V:2] G4z4 | 
[V:3] B4B2B2 | 
[V:4] G,8 | 
[V:1] G2F2G2A2- | 
[V:2] z8 | 
[V:3] B3AG2F2 | 
[V:4] z8 | 
[V:1] AGG4^F2 | 
[V:2] z8 | 
[V:3] G4A4 | 
[V:4] z8 | 
[V:1] G4z4 | 
[V:2] z2B2B2c2 | 
[V:3] G4z4 | 
[V:4] z2G,2G,2E,2 | 
[V:1] z8 | 
[V:2] d3cd2_e2- | 
[V:3] z8 | 
[V:4] F,3E,F,2G,2- | 
[V:1] z8 | 
[V:2] edd4c2 | 
[V:3] z8 | 
[V:4] G,F,_E,D,E,3D,/C,/ | 
[V:1] z2B2B3c | 
[V:2] d4z4 | 
[V:3] z4B4 | 
[V:4] B,,4z4 | 
[V:1] d2c2d2_e2- | 
[V:2] z8 | 
[V:3] B2A2B2c2 | 
[V:4] z8 | 
[V:1] edd4c2 | 
[V:2] z8 | 
[V:3] d4_e4 | 
[V:4] z8 | 
[V:1] d4z4 | 
[V:2] B6A2 | 
[V:3] d8- | 
[V:4] G,6F,2 | 
[V:1] z8 | 
[V:2] B2A2A4 | 
[V:3] d8 | 
[V:4] G,2F,2D,4 | 
[V:1] G6F2 | 
[V:2] G2B2c2d2 | 
[V:3] z8 | 
[V:4] _E,6D,2 | 
[V:1] G2F2D4- | 
[V:2] G2A2B4 | 
[V:3] z8 | 
[V:4] _E,2D,2B,,3C, | 
[V:1] D4z2G2- | 
[V:2] A4G4 | 
[V:3] z8 | 
[V:4] D,4G,,4 | 
[V:1] G2G2G4 | 
[V:2] z2B4B2 | 
[V:3] d8- | 
[V:4] G,6G,2 | 
[V:1] G4D4 | 
[V:2] B4B4 | 
[V:3] d8 | 
[V:4] G,4G,4 | 
[V:1] F8 | 
[V:2] A8 | 
[V:3] d8 | 
[V:4] D,4z2D,2 | 
[V:1] z2A2c2c2 | 
[V:2] z2c2e2e2 | 
[V:3] c8 | 
[V:4] F,2F,2C,4 | 
[V:1] G4d4- | 
[V:2] d8- | 
[V:3] B4A4 | 
[V:4] G,4D,2D,2 | 
[V:1] d2c2B2A2 | 
[V:2] d8 | 
[V:3] B8 | 
[V:4] G,6F,2 | 
[V:1] G2F2E4 | 
[V:2] z2F2G2A2 | 
[V:3] c8 | 
[V:4] E,2D,2C,4 | 
[V:1] D4C2c2- | 
[V:2] B2B2G4- | 
[V:3] d4_e4 | 
[V:4] B,,4C,4 | 
[V:1] c2B2B4- | 
[V:2] G2B3cde | 
[V:3] d4B4 | 
[V:4] G,8 | 
[V:1] B2AGA4 | 
[V:2] f4f2f2 | 
[V:3] c8 | 
[V:4] F,8 | 
[V:1] [M:3/1]B8z4 | 
[V:2] [M:3/1]d12- | 
[V:3] [M:3/1]B8z4 | 
[V:4] [M:3/1]B,,8z4 | 
[V:1] z4F4D4 | 
[V:2] d8z4 | 
[V:3] B4B4B4 | 
[V:4] z12 | 
[V:1] E4F4G4 | 
[V:2] z12 | 
[V:3] A8B4 | 
[V:4] z12 | 
[V:1] G2F2E2D2E2F2 | 
[V:2] z12 | 
[V:3] c6B2A4 | 
[V:4] z12 | 
[V:1] G4G4^F4 | 
[V:2] z12 | 
[V:3] G4A8 | 
[V:4] z12 | 
[V:1] G12 | 
[V:2] z4B4G4 | 
[V:3] G8z4 | 
[V:4] _E,4E,4E,4 | 
[V:1] z12 | 
[V:2] A4B4c4 | 
[V:3] z12 | 
[V:4] D,8_E,4 | 
[V:1] z12 | 
[V:2] c2B2A2G2A2B2 | 
[V:3] z12 | 
[V:4] F,6_E,2D,4 | 
[V:1] z12 | 
[V:2] c4c4=B4 | 
[V:3] z12 | 
[V:4] C,4D,8 | 
[V:1] E4E4E4 | 
[V:2] c8z4 | 
[V:3] z12 | 
[V:4] C,12 | 
[V:1] D4F4G4 | 
[V:2] F4D4E4 | 
[V:3] B4B4B4 | 
[V:4] z12 | 
[V:1] A6G2F4 | 
[V:2] F8F4 | 
[V:3] A8B4 | 
[V:4] D,4D,4D,4 | 
[V:1] E8F4 | 
[V:2] G8F4 | 
[V:3] c6B2A4 | 
[V:4] C,8D,4 | 
[V:1] G6F2E4 | 
[V:2] B8c4 | 
[V:3] G8A4 | 
[V:4] _E,6D,2C,4 | 
[V:1] D8E4 | 
[V:2] d4f4e4 | 
[V:3] B6A2G4 | 
[V:4] B,,8C,4 | 
[V:1] F4A6G2 | 
[V:2] d4c4_e4- | 
[V:3] F8B4 | 
[V:4] D,4F,4_E,4 | 
[V:1] G8^F4 | 
[V:2] e4d8 | 
[V:3] c4A8 | 
[V:4] C,4D,8 | 
[V:1] G8z4 | 
[V:2] B12 | 
[V:3] G8z4 | 
[V:4] G,,12 | 
[V:1] z4B8 | 
[V:2] z4z4_e4- | 
[V:3] d8B4 | 
[V:4] z4G,8 | 
[V:1] G4A4F4 | 
[V:2] e4c4d4 | 
[V:3] c4A4B4 | 
[V:4] _E,4F,4D,4 | 
[V:1] G4E4A4- | 
[V:2] B4c4A4 | 
[V:3] G4c8 | 
[V:4] _E,4C,4F,4- | 
[V:1] A4F4G4 | 
[V:2] d8B4 | 
[V:3] A4B4G4 | 
[V:4] F,4D,4_E,4 | 
[V:1] E4F4D4 | 
[V:2] c4A4B4 | 
[V:3] A4F4B4- | 
[V:4] C,4D,4B,,4 | 
[V:1] G8E4 | 
[V:2] G4c8 | 
[V:3] B4G4A4 | 
[V:4] _E,8C,4 | 
[V:1] F4D4E4 | 
[V:2] A4B4G4 | 
[V:3] F4G4E4 | 
[V:4] D,4B,,4C,4 | 
[V:1] C4F8 | 
[V:2] A4F4B4- | 
[V:3] A8F4 | 
[V:4] A,,4D,8 | 
[V:1] D4E4C4 | 
[V:2] B4G4A4 | 
[V:3] G4E4F4 | 
[V:4] B,,4C,4A,,4 | 
[V:1] D4B,4B4- | 
[V:2] F4G4z4 | 
[V:3] D4d8 | 
[V:4] B,,4G,,4G,4- | 
[V:1] B4G4A4 | 
[V:2] _e8c4 | 
[V:3] B4c4A4 | 
[V:4] G,4_E,4F,4 | 
[V:1] F4G4E4 | 
[V:2] d4B4c4 | 
[V:3] B4G4c4- | 
[V:4] D,4_E,4C,4 | 
[V:1] A8F4 | 
[V:2] A4d8 | 
[V:3] c4A4B4 | 
[V:4] F,8D,4 | 
[V:1] G4E4F4 | 
[V:2] B4c4A4 | 
[V:3] G4A4F4 | 
[V:4] _E,4C,4D,4 | 
[V:1] D4G8 | 
[V:2] B4G4c4- | 
[V:3] B8G4 | 
[V:4] B,,4_E,8 | 
[V:1] E4F4D4 | 
[V:2] c4A4B4 | 
[V:3] A4F4G4- | 
[V:4] C,4D,4B,,4 | 
[V:1] G6^F2F2E2 | 
[V:2] c4d8 | 
[V:3] G4A8 | 
[V:4] _E,4D,8 | 
[V:1] G12 |]  
[V:2] d12 |]  
[V:3] G12 |]  
[V:4] G,,12 |]  



